X:74
T:No.74 The King Of The Pipers
C:jig
M:6/8
L:1/8
K:G
cAG AdA|DDD AdA|cAG AdA|
DDD GED|cAG AdA|DDD AGE|
FDF E^CE|DEF GED:|d2e faf|
e^cA AFA|d^cd efg|faf gfe|
d^cd faf|e^cA AGE|FDF E^CE|
DEF GED:|B2G AGA|BGE Edc|
B2G AGE|GED Ddc|B2G AGA|BGEE2^c|
d^cd ABG|[1FDD Dd=c:|[2FDD D2B||
